X:1
T:The Cow-Boy's -- Jig
R:jig
B:Ryan's Mammoth Collection
N: 84 427
Z: Contributed by Ray Davies,  ray:davies99.freeserve.co.uk
M:6/8
L:1/8
K:G
vB/A/|\
GDE G2A | Bgf gdB | ABc BGA | BcA BGE |
GDE G2A | Bgf gdB | ABc BcA | BGG G2:|
|:vB/d/|\
e2e e2e | egf edB | d2d d2d | dge dBG |
c2d e2d | gdB A2d | BGA BcA | BGG G2:|
